svg/u1f4cb.svg

<svg viewBox="0 0 128 128" xmlns="http://www.w3.org/2000/svg">
  <g>
    <g>
      <path d="M18.64,114.25l83.27-98.22c2.63,0,7.45,0.24,7.45,6.74v94.53c0,2.63-2.13,4.76-4.76,4.76H24.42 C21.79,122.07,18.64,119.71,18.64,114.25z" fill="#A15D38"/>
      <path d="M18.64,114.38V20.54c0-2.51,2.03-4.54,4.54-4.54h78.58c2.51,0,4.54,2.03,4.54,4.54v93.84 c0,2.51-2.03,4.54-4.54,4.54H23.18C20.67,118.92,18.64,116.89,18.64,114.38z" fill="#BA793E"/>
      <g>
        <path d="M28.45,109.66V25.02c0-1.29,1.05-2.34,2.34-2.34h64.42c1.29,0,2.34,1.05,2.34,2.34v84.64 c0,1.29-1.05,2.34-2.34,2.34H30.79C29.5,112,28.45,110.96,28.45,109.66z" fill="#FFFFFF"/>
        <g>
          <line fill="none" stroke="#B0BEC5" stroke-width="3" stroke-linecap="round" stroke-miterlimit="10" x1="38.65" x2="87.35" y1="54.36" y2="54.36"/>
          <line fill="none" stroke="#B0BEC5" stroke-width="3" stroke-linecap="round" stroke-miterlimit="10" x1="38.65" x2="87.35" y1="42.91" y2="42.91"/>
          <line fill="none" stroke="#B0BEC5" stroke-width="3" stroke-linecap="round" stroke-miterlimit="10" x1="38.65" x2="87.35" y1="65.81" y2="65.81"/>
          <line fill="none" stroke="#B0BEC5" stroke-width="3" stroke-linecap="round" stroke-miterlimit="10" x1="38.65" x2="87.35" y1="77.27" y2="77.27"/>
          <line fill="none" stroke="#B0BEC5" stroke-width="3" stroke-linecap="round" stroke-miterlimit="10" x1="38.65" x2="87.35" y1="88.72" y2="88.72"/>
          <line fill="none" stroke="#B0BEC5" stroke-width="3" stroke-linecap="round" stroke-miterlimit="10" x1="38.65" x2="59.48" y1="100.17" y2="100.17"/>
        </g>
      </g>
    </g>
    <polygon points="86.93,28.4 86.93,16.03 72.95,16.03 81.66,28.4 " opacity="0.35" fill="#212121"/>
    <g>
      <path d="M78.01,16.49l-3.22-0.05c-2.14,0-2.54-1.9-2.62-2.3c-0.11-0.52-0.25-1.67-0.31-2.13 c-0.54-4.49-2.08-7.25-7.69-7.89c-4.86-0.55-8.35,4.44-8.35,9.2c0,0.01,0,0.03,0,0.04c0.01,2.15-1.62,3.95-3.77,3.95 c0,0-6.28-1.07-10.77,4.07c-0.84,0.96-1.85,4.92-1.86,6.03c-0.02,3.09,2.65,3.5,3.58,3.51c4.18,0.03,38.23-0.08,41.49-0.08 c1.34,0,2.43-1.09,2.43-2.43v-1.81C86.93,21.46,83.14,16.49,78.01,16.49z M63.89,16.76c-1.85,0-3.35-1.5-3.35-3.35 s1.5-3.35,3.35-3.35c1.85,0,3.35,1.5,3.35,3.35S65.74,16.76,63.89,16.76z" fill="#2F7889"/>
      <path d="M76.18,15.99h-1.94c-2.14,0-3-1.68-3.27-2.26c-0.39-0.85-0.5-2.58-0.57-3.04 c-0.56-3.53-3.51-6.33-7.06-6.71c-4.86-0.53-8.98,3.27-8.98,8.02c0,0.01,0,0.03,0,0.04c0.01,2.15-1.62,3.95-3.77,3.95h-1.9 c-5.13,0-9.29,4.16-9.29,9.29v1.81c0,1.34,1.09,2.43,2.43,2.43h41.2c1.34,0,2.43-1.09,2.43-2.43v-1.81 C85.47,20.15,81.31,15.99,76.18,15.99z M62.43,15.45c-1.85,0-3.35-1.5-3.35-3.35s1.5-3.35,3.35-3.35s3.35,1.5,3.35,3.35 S64.28,15.45,62.43,15.45z" fill="#82AEC0"/>
      <path d="M78.97,22.04H44.89c-1.3,0-1.64-0.73-0.97-1.84c0.98-1.61,3.32-2.67,5.32-2.67 c4.34,0,20-0.48,25.51-0.48c2.69,0,4.09,0.9,5.26,2.4C80.84,20.53,80.32,22.04,78.97,22.04z" fill="#B9E4EA"/>
      <path d="M56.98,9.48 c0.56-2.28,2.71-2.93,2.71-2.93" fill="none" stroke="#B9E4EA" stroke-width="2.1165" stroke-linecap="round" stroke-miterlimit="10"/>
    </g>
  </g>
</svg>

<svg viewBox="0 0 128 128" xmlns="http://www.w3.org/2000/svg">
  <defs/>
  <path d="M18.64,114.25 L101.91,16.03 C104.54,16.03 109.36,16.27 109.36,22.77 L109.36,117.3 C109.36,119.93 107.23,122.06 104.6,122.06 L24.42,122.06 C21.79,122.07 18.64,119.71 18.64,114.25 Z" fill="#A15D38"/>
  <path d="M18.64,114.38 L18.64,20.54 C18.64,18.03 20.67,16 23.18,16 L101.76,16 C104.27,16 106.3,18.03 106.3,20.54 L106.3,114.38 C106.3,116.89 104.27,118.92 101.76,118.92 L23.18,118.92 C20.67,118.92 18.64,116.89 18.64,114.38 Z" fill="#BA793E"/>
  <path d="M28.45,109.66 L28.45,25.02 C28.45,23.73 29.5,22.68 30.79,22.68 L95.21,22.68 C96.5,22.68 97.55,23.73 97.55,25.02 L97.55,109.66 C97.55,110.95 96.5,112 95.21,112 L30.79,112 C29.5,112 28.45,110.96 28.45,109.66 Z" fill="#FFFFFF"/>
  <path d="M38.65,52.86 L87.35,52.86 Q88.85,52.86 88.85,54.36 Q88.85,55.86 87.35,55.86 L38.65,55.86 Q37.15,55.86 37.15,54.36 Q37.15,52.86 38.65,52.86 Z" fill="#B0BEC5"/>
  <path d="M38.65,41.41 L87.35,41.41 Q88.85,41.41 88.85,42.91 Q88.85,44.41 87.35,44.41 L38.65,44.41 Q37.15,44.41 37.15,42.91 Q37.15,41.41 38.65,41.41 Z" fill="#B0BEC5"/>
  <path d="M38.65,64.31 L87.35,64.31 Q88.85,64.31 88.85,65.81 Q88.85,67.31 87.35,67.31 L38.65,67.31 Q37.15,67.31 37.15,65.81 Q37.15,64.31 38.65,64.31 Z" fill="#B0BEC5"/>
  <path d="M38.65,75.77 L87.35,75.77 Q88.85,75.77 88.85,77.27 Q88.85,78.77 87.35,78.77 L38.65,78.77 Q37.15,78.77 37.15,77.27 Q37.15,75.77 38.65,75.77 Z" fill="#B0BEC5"/>
  <path d="M38.65,87.22 L87.35,87.22 Q88.85,87.22 88.85,88.72 Q88.85,90.22 87.35,90.22 L38.65,90.22 Q37.15,90.22 37.15,88.72 Q37.15,87.22 38.65,87.22 Z" fill="#B0BEC5"/>
  <path d="M38.65,98.67 L59.48,98.67 Q60.98,98.67 60.98,100.17 Q60.98,101.67 59.48,101.67 L38.65,101.67 Q37.15,101.67 37.15,100.17 Q37.15,98.67 38.65,98.67 Z" fill="#B0BEC5"/>
  <path d="M86.93,28.4 L86.93,16.03 L72.95,16.03 L81.66,28.4 Z" fill="#212121" opacity="0.35"/>
  <path d="M78.01,16.49 L74.79,16.44 C72.65,16.44 72.25,14.54 72.17,14.14 C72.06,13.62 71.92,12.47 71.86,12.01 C71.32,7.52 69.78,4.76 64.17,4.12 C59.31,3.57 55.82,8.56 55.82,13.32 C55.82,13.33 55.82,13.35 55.82,13.36 C55.83,15.51 54.2,17.31 52.05,17.31 C52.05,17.31 45.77,16.24 41.28,21.38 C40.44,22.34 39.43,26.3 39.42,27.41 C39.4,30.5 42.07,30.91 43,30.92 C47.18,30.95 81.23,30.84 84.49,30.84 C85.83,30.84 86.92,29.75 86.92,28.41 L86.92,26.6 C86.93,21.46 83.14,16.49 78.01,16.49 Z M63.89,16.76 C62.04,16.76 60.54,15.26 60.54,13.41 C60.54,11.56 62.04,10.06 63.89,10.06 C65.74,10.06 67.24,11.56 67.24,13.41 C67.24,15.26 65.74,16.76 63.89,16.76 Z" fill="#2F7889"/>
  <path d="M76.18,15.99 L74.24,15.99 C72.1,15.99 71.24,14.31 70.97,13.73 C70.58,12.88 70.47,11.15 70.4,10.69 C69.84,7.16 66.89,4.36 63.34,3.98 C58.48,3.45 54.36,7.25 54.36,12 C54.36,12.01 54.36,12.03 54.36,12.04 C54.37,14.19 52.74,15.99 50.59,15.99 L48.69,15.99 C43.56,15.99 39.4,20.15 39.4,25.28 L39.4,27.09 C39.4,28.43 40.49,29.52 41.83,29.52 L83.03,29.52 C84.37,29.52 85.46,28.43 85.46,27.09 L85.46,25.28 C85.47,20.15 81.31,15.99 76.18,15.99 Z M62.43,15.45 C60.58,15.45 59.08,13.95 59.08,12.1 C59.08,10.25 60.58,8.75 62.43,8.75 C64.28,8.75 65.78,10.25 65.78,12.1 C65.78,13.95 64.28,15.45 62.43,15.45 Z" fill="#82AEC0"/>
  <path d="M78.97,22.04 L44.89,22.04 C43.59,22.04 43.25,21.31 43.92,20.2 C44.9,18.59 47.24,17.53 49.24,17.53 C53.58,17.53 69.24,17.05 74.75,17.05 C77.44,17.05 78.84,17.95 80.01,19.45 C80.84,20.53 80.32,22.04 78.97,22.04 Z" fill="#B9E4EA"/>
  <path d="M55.952,9.228 Q56.656,6.362 59.384,5.537 Q60.397,5.231 60.703,6.244 Q60.856,6.75 60.679,7.08 Q60.503,7.41 59.996,7.563 Q58.424,8.038 58.008,9.732 Q57.881,10.246 57.561,10.44 Q57.241,10.634 56.728,10.508 Q55.7,10.255 55.952,9.228 Z" fill="#B9E4EA"/>
</svg>
